assets/icons/qvision/local_cafe.svg

<svg xmlns="http://www.w3.org/2000/svg" height="24" viewBox="0 0 24 24" width="24"><path d="M0 0h24v24H0V0z" fill="none"/><path d="M20 3H4v10c0 2.21 1.79 4 4 4h6c2.21 0 4-1.79 4-4v-3h2c1.11 0 2-.9 2-2V5c0-1.11-.89-2-2-2zm0 5h-2V5h2v3zM4 19h16v2H4z"/></svg>

<svg width="24" height="24" viewBox="0 0 24 24" fill="none" xmlns="http://www.w3.org/2000/svg">
<g clip-path="url(#clip0_147_5380)">
<path d="M20 3H4V13C4 15.21 5.79 17 8 17H14C16.21 17 18 15.21 18 13V10H20C21.11 10 22 9.1 22 8V5C22 3.89 21.11 3 20 3ZM20 8H18V5H20V8ZM4 19H20V21H4V19Z" fill="#323232"/>
</g>
<defs>
<clipPath id="clip0_147_5380">
<rect width="24" height="24" fill="white"/>
</clipPath>
</defs>
</svg>
